X:WFS 13-12 19
T:Linky Lanky
S:Frankie
M:6/8
K:Em
[P:A] D| E2B B2A | G2G AGF | E2B B2A | G2A [1 B2F :|2 B2 
[P:B] B| c2c B2G | A2G FED | E2B B2A | G2A B2 
[P:C] F | G2B d2D | F2G ABc | BcB e2d | c2B A2
[P:D] B2G A2F | G2E FED | E2B B2A | G2A B2x [P:(C)] 
[P:E] f| g2g f2d | e2B ABc | B3 BcB | AGF E2 |]

